packages/ui-solid/icons/power_24.svg

<svg width="24" height="24" viewBox="0 0 24 24" fill="none" xmlns="http://www.w3.org/2000/svg">
<path fill-rule="evenodd" clip-rule="evenodd" d="M8.02024 4.59644H12.5529C13.6267 4.59643 14.4871 4.59642 15.1828 4.65296C15.8972 4.71103 16.5163 4.83314 17.0869 5.12207C18.0124 5.59073 18.7642 6.3425 19.2328 7.26799C19.5218 7.83856 19.6439 8.4577 19.7019 9.17213C19.7585 9.8678 19.7585 10.7282 19.7585 11.802V11.8794C19.7585 12.9532 19.7585 13.8136 19.7019 14.5093C19.6439 15.2237 19.5218 15.8428 19.2328 16.4134C18.7642 17.3389 18.0124 18.0907 17.0869 18.5593C16.5163 18.8483 15.8972 18.9704 15.1828 19.0284C14.4871 19.085 13.6267 19.085 12.5529 19.085H8.02025C6.94646 19.085 6.08605 19.085 5.39038 19.0284C4.67595 18.9704 4.05681 18.8483 3.48624 18.5593C2.56075 18.0907 1.80897 17.3389 1.34031 16.4134C1.05138 15.8428 0.929276 15.2237 0.87121 14.5093C0.814668 13.8136 0.814674 12.9532 0.814682 11.8794V11.802C0.814674 10.7282 0.814668 9.8678 0.87121 9.17213C0.929276 8.4577 1.05138 7.83856 1.34031 7.26799C1.80897 6.3425 2.56075 5.59073 3.48624 5.12207C4.05681 4.83314 4.67595 4.71103 5.39038 4.65296C6.08605 4.59642 6.94645 4.59643 8.02024 4.59644ZM5.5362 6.44705C4.93245 6.49612 4.57514 6.58829 4.29942 6.72791C3.71579 7.02346 3.2417 7.49754 2.94616 8.08118C2.80654 8.35689 2.71436 8.7142 2.66529 9.31795C2.61538 9.93213 2.61468 10.7193 2.61468 11.8407C2.61468 12.9621 2.61538 13.7493 2.66529 14.3635C2.71436 14.9672 2.80654 15.3245 2.94616 15.6002C3.2417 16.1839 3.71579 16.6579 4.29942 16.9535C4.57514 17.0931 4.93245 17.1853 5.5362 17.2344C6.15037 17.2843 6.93757 17.285 8.05895 17.285H12.5142C13.6356 17.285 14.4228 17.2843 15.037 17.2344C15.6407 17.1853 15.998 17.0931 16.2737 16.9535C16.8574 16.6579 17.3314 16.1839 17.627 15.6002C17.7666 15.3245 17.8588 14.9672 17.9079 14.3635C17.9578 13.7493 17.9585 12.9621 17.9585 11.8407C17.9585 10.7193 17.9578 9.93213 17.9079 9.31795C17.8588 8.7142 17.7666 8.35689 17.627 8.08118C17.3314 7.49754 16.8574 7.02346 16.2737 6.72791C15.998 6.58829 15.6407 6.49612 15.037 6.44705C14.4228 6.39713 13.6356 6.39644 12.5142 6.39644H8.05895C6.93757 6.39644 6.15037 6.39713 5.5362 6.44705Z" fill="#007AFF"/>
<path d="M7.63924 11.8985L10.2871 8.22393C10.5689 7.83281 11.1867 8.03219 11.1867 8.51427V10.2855C11.1867 10.5598 11.409 10.7822 11.6833 10.7822H12.8437C13.269 10.7822 13.4975 11.2819 13.2193 11.6036L9.9926 15.3351C9.64089 15.7419 8.98376 15.3775 9.14242 14.8638L9.61652 13.3286C9.71518 13.0091 9.47636 12.6854 9.142 12.6854H8.04216C7.63727 12.6854 7.40253 12.227 7.63924 11.8985Z" fill="#007AFF"/>
<path d="M21.8104 13.5759C22.4338 13.2416 22.8569 12.5897 22.8569 11.8403C22.8569 11.0909 22.4338 10.4391 21.8104 10.1047C21.327 9.84541 20.8564 10.3109 20.8564 10.8595V12.8212C20.8564 13.3697 21.327 13.8352 21.8104 13.5759Z" fill="#007AFF"/>
</svg>

<svg xmlns="http://www.w3.org/2000/svg" width="24" height="24" fill="none"><path fill="currentColor" fill-rule="evenodd" d="M8.02 4.596h4.533c1.074 0 1.934 0 2.63.057.714.058 1.333.18 1.904.47a4.87 4.87 0 0 1 2.146 2.145c.289.57.41 1.19.469 1.904.056.696.056 1.556.056 2.63v.077c0 1.074 0 1.935-.056 2.63-.058.715-.18 1.334-.47 1.904a4.87 4.87 0 0 1-2.145 2.146c-.57.29-1.19.411-1.904.47-.696.056-1.556.056-2.63.056H8.02c-1.074 0-1.934 0-2.63-.057-.714-.058-1.333-.18-1.904-.469a4.87 4.87 0 0 1-2.146-2.146c-.289-.57-.41-1.19-.469-1.904-.056-.695-.056-1.556-.056-2.63v-.077c0-1.074 0-1.934.056-2.63.058-.714.18-1.333.47-1.904a4.87 4.87 0 0 1 2.145-2.146c.57-.289 1.19-.411 1.904-.469.696-.057 1.556-.057 2.63-.057M5.536 6.447c-.604.05-.96.141-1.237.28a3.07 3.07 0 0 0-1.353 1.354c-.14.276-.232.633-.28 1.237-.05.614-.051 1.401-.051 2.523 0 1.121 0 1.908.05 2.523.05.603.142.96.281 1.236.296.584.77 1.058 1.353 1.353.276.14.633.232 1.237.281.614.05 1.402.051 2.523.051h4.455c1.122 0 1.909 0 2.523-.05.604-.05.961-.142 1.237-.282a3.07 3.07 0 0 0 1.353-1.353c.14-.275.232-.633.28-1.236.05-.615.052-1.402.052-2.523s-.001-1.909-.051-2.523c-.05-.604-.141-.961-.281-1.237a3.07 3.07 0 0 0-1.353-1.353c-.276-.14-.633-.232-1.237-.28-.614-.05-1.401-.052-2.523-.052H8.06c-1.121 0-1.909.001-2.523.051" clip-rule="evenodd"/><path fill="currentColor" d="m7.64 11.899 2.647-3.675a.497.497 0 0 1 .9.29v1.772c0 .274.222.496.496.496h1.16c.426 0 .655.5.376.822l-3.226 3.731c-.352.407-1.01.042-.85-.471l.474-1.535a.497.497 0 0 0-.475-.644h-1.1a.497.497 0 0 1-.403-.787m14.171 1.678a1.97 1.97 0 0 0 1.047-1.736 1.97 1.97 0 0 0-1.047-1.735c-.483-.26-.954.206-.954.755v1.961c0 .549.471 1.014.954.755"/></svg>
